packages/katcn/src/icons/svg/glasses-solid.svg

<svg width="24" height="25" viewBox="0 0 24 25" fill="none" xmlns="http://www.w3.org/2000/svg">
<path d="M18.1781 10.208C16.3699 10.208 14.7626 11.2497 13.9589 12.708H10.242C9.3379 11.1455 7.83105 10.208 5.92237 10.208C3.21005 10.208 1 12.3955 1 15.208C1 18.0205 3.21005 20.208 5.92237 20.208C8.6347 20.208 10.8447 17.9163 10.8447 15.208C10.8447 15.1038 10.8447 14.8955 10.8447 14.7913H13.1553C13.1553 14.8955 13.1553 15.1038 13.1553 15.208C13.1553 18.0205 15.3653 20.208 18.0776 20.208C20.79 20.208 23 17.9163 23 15.208C23 12.4997 20.8904 10.208 18.1781 10.208Z" fill="black"/>
<path d="M1.61701 10.1143C1.72401 10.208 1.938 10.208 2.045 10.208C2.473 10.208 2.901 10.0205 3.008 9.64551L4.078 7.39551C4.506 6.55176 5.362 6.08301 6.325 6.08301H7.93C8.572 6.08301 9 5.70801 9 5.14551C9 4.58301 8.465 4.20801 7.93 4.20801H6.325C4.506 4.20801 2.794 5.14551 2.152 6.55176L1.08201 8.89551C0.868006 9.36426 1.08201 9.92676 1.61701 10.1143Z" fill="black"/>
<path d="M16.9434 6.11277H18.3586C19.2077 6.11277 19.9624 6.58896 20.2455 7.35086L21.1889 9.63658C21.3776 10.0175 21.6606 10.208 22.038 10.208C22.1323 10.208 22.321 10.208 22.4154 10.1128C22.8871 9.92229 23.1701 9.35086 22.8871 8.87467L21.9436 6.58896C21.4719 5.16039 19.9624 4.20801 18.3586 4.20801H16.9434C16.3774 4.20801 16 4.58896 16 5.16039C16 5.73182 16.4717 6.11277 16.9434 6.11277Z" fill="black"/>
</svg>

<svg xmlns="http://www.w3.org/2000/svg" fill="none" viewBox="0 0 24 25"><path fill="#000" d="M18.178 10.208c-1.808 0-3.415 1.042-4.22 2.5h-3.716c-.904-1.562-2.411-2.5-4.32-2.5-2.712 0-4.922 2.188-4.922 5s2.21 5 4.922 5c2.713 0 4.923-2.292 4.923-5v-.417h2.31v.417c0 2.812 2.21 5 4.923 5s4.922-2.292 4.922-5-2.11-5-4.822-5m-16.561-.094c.107.094.321.094.428.094.428 0 .856-.187.963-.562l1.07-2.25c.428-.844 1.284-1.313 2.247-1.313H7.93c.642 0 1.07-.375 1.07-.937s-.535-.938-1.07-.938H6.325c-1.819 0-3.531.938-4.173 2.344l-1.07 2.344a.89.89 0 0 0 .535 1.218m15.326-4.001h1.416c.849 0 1.603.476 1.886 1.238l.944 2.286q.284.57.849.571c.094 0 .283 0 .377-.095.472-.19.755-.762.472-1.238l-.943-2.286c-.472-1.429-1.982-2.381-3.585-2.381h-1.416c-.566 0-.943.381-.943.952a.95.95 0 0 0 .943.953"/></svg>
